X:2247
T:Mylecharane
C:John Cain
C:Traditional
O:Isle of Man 
Z:Clague Collection
N:See also KV 294,295,302,373,403,404.
N:"Sang Colbagh Breac as played by Kinrade"
B:Kiaull Vannin #247
L:1/8
M:3/4 
K:D
d>c|d2 A2 d>c|d4 d>c|d2 A2 G>F|E2D2 e>f|g2 f2 e2|d2 c2 d2|E4 c>d|
e2a2 g>e|f2e2 f>e|d2 A2 G>F|E2 F2 GB|A3G FE|D4 c2|d4||

